Resources/Public/Icons/solid/file-medical.svg

<svg xmlns="http://www.w3.org/2000/svg" viewBox="0 0 384 512"><!--! Font Awesome Free 6.6.0 by @fontawesome - https://fontawesome.com License - https://fontawesome.com/license/free (Icons: CC BY 4.0, Fonts: SIL OFL 1.1, Code: MIT License) Copyright 2024 Fonticons, Inc. --><path d="M64 0C28.7 0 0 28.7 0 64L0 448c0 35.3 28.7 64 64 64l256 0c35.3 0 64-28.7 64-64l0-288-128 0c-17.7 0-32-14.3-32-32L224 0 64 0zM256 0l0 128 128 0L256 0zM160 240c0-8.8 7.2-16 16-16l32 0c8.8 0 16 7.2 16 16l0 48 48 0c8.8 0 16 7.2 16 16l0 32c0 8.8-7.2 16-16 16l-48 0 0 48c0 8.8-7.2 16-16 16l-32 0c-8.8 0-16-7.2-16-16l0-48-48 0c-8.8 0-16-7.2-16-16l0-32c0-8.8 7.2-16 16-16l48 0 0-48z"/></svg>

<svg xmlns="http://www.w3.org/2000/svg" viewBox="0 0 384 512"><!--! Font Awesome Free 6.5.1 by @fontawesome - https://fontawesome.com License - https://fontawesome.com/license/free (Icons: CC BY 4.0, Fonts: SIL OFL 1.1, Code: MIT License) Copyright 2023 Fonticons, Inc. --><path d="M64 0C28.7 0 0 28.7 0 64V448c0 35.3 28.7 64 64 64H320c35.3 0 64-28.7 64-64V160H256c-17.7 0-32-14.3-32-32V0H64zM256 0V128H384L256 0zM160 240c0-8.8 7.2-16 16-16h32c8.8 0 16 7.2 16 16v48h48c8.8 0 16 7.2 16 16v32c0 8.8-7.2 16-16 16H224v48c0 8.8-7.2 16-16 16H176c-8.8 0-16-7.2-16-16V352H112c-8.8 0-16-7.2-16-16V304c0-8.8 7.2-16 16-16h48V240z"/></svg>
